X:50
T:Perenita
O:Romanian
M:2/4
L:1/8
K:G
V:1
|:"G"^cd cd|^cd B2|"D"^cd ^cd|"G"B4|^cd =fd|^cd B2|"D"^cd ^cd|"G"B4:|
|:"G"GD GD|GA B2|GDAG|B2B2|GD GD|GAB2|"D"(3dcB (3cBA|"G"G2G2:|
|:"C"(3cBc (3edc|"G"(3B^AB (3dcB|"D"(3A^GA (3cBA|"G"GB "G7"d2|
"C"(3cBc (3edc|"G"(3B^AB (3dcB|"D"(3A^GA (3cBA|"G"G2G2:|
